X: 30582
T: IRELAND'S HORNPIPE
C:
%R: hornpipe, reel
B: Elias Howe "The Musician's Companion" Part 3 1844 p.58 #2
S: http://imslp.org/wiki/The_Musician's_Companion_(Howe,_Elias)
S: https://archive.org/stream/firstthirdpartof03howe/#page/66/mode/1up
Z: 2015 John Chambers <jc:trillian.mit.edu>
M: 2/4
L: 1/16
K: D
% - - - - - - - - - - - - - - - - - - - - - - - - -
A2 |\
dcdA GFED | efge dcBA | GABG FGAF | EFGA GFED |\
dcdA GFED | efge dcBA | fdcB ecBA | dBA^G A2 :|
|: B2 |\
efge dcd2 | (AGFE) DCD2 | EFGA Bcde | fddg dcBA |\
dcdA GFED | efge dcBA | BGFE AFED | GEDC D2 :|
% - - - - - - - - - - - - - - - - - - - - - - - - -
